apps/scalable/calligrakexi.svg

<svg height="48" width="48" xmlns="http://www.w3.org/2000/svg" xmlns:xlink="http://www.w3.org/1999/xlink"><linearGradient id="a" gradientTransform="matrix(-.99376025 -.00423137 .00423137 .98887429 47.822674 2.340235)" gradientUnits="userSpaceOnUse" x1="17.482805" x2="37.757912" xlink:href="#g" y1="4.715699" y2="39.833214"/><linearGradient id="b" gradientTransform="matrix(-.99376025 -.00423137 .00423137 .98887429 47.822674 31.340235)" gradientUnits="userSpaceOnUse" x1="17.482805" x2="37.757912" xlink:href="#g" y1="4.715699" y2="39.833214"/><linearGradient id="c" gradientTransform="matrix(-.99376025 -.00423137 .00423137 .98887429 47.822674 16.340235)" gradientUnits="userSpaceOnUse" x1="17.482805" x2="37.757912" xlink:href="#g" y1="4.715699" y2="39.833214"/><linearGradient id="d" gradientTransform="matrix(1.0309825 0 0 1 -.512598 0)" gradientUnits="userSpaceOnUse" x1="17" x2="17" y1="1036.3622" y2="1012.3622"><stop offset="0" stop-color="#178b6f"/><stop offset="1" stop-color="#4dd7c4"/></linearGradient><linearGradient id="e" gradientTransform="matrix(.68964436 0 0 1 10.82717 0)" gradientUnits="userSpaceOnUse" x1="33.461716" x2="34.116894" xlink:href="#g" y1="1013.622" y2="1037.2084"/><linearGradient id="f" gradientUnits="userSpaceOnUse" x1="27.800341" x2="27.800341" y1="1037.3622" y2="1011.3622"><stop offset="0" stop-color="#178b6f"/><stop offset="1" stop-color="#3cad9d"/></linearGradient><linearGradient id="g"><stop offset="0" stop-color="#f6fbff"/><stop offset="1" stop-color="#eaeff2"/></linearGradient><g fill-rule="evenodd" transform="matrix(1.759272946833 0 0 1.759272946833 -15.451580332036 -1778.736405531432)"><path d="m11.563303 1036.9442h11.636697l-.000321-24.4983-11.533282.0003c-1.268259-.094-1.782566.023-1.782566 1.1721v22.0916c-.07966 1.261.446208 1.2343 1.679472 1.2343z" fill="url(#d)"/><path d="m33.959911 1036.9362h-7.990815v-24.498h7.990815c.848365-.094.916631.023.916631 1.1721v22.0916c.05328 1.261-.09168 1.2343-.916631 1.2343z" fill="url(#e)"/><path d="m31.957586 1038.1035-10.029586-1.1715-.00002-24.4861 9.945926-.9324c1.230149-.094 1.296492.2446 1.296492 1.3937l-.08368 23.3688c.07726 1.261.06707 1.8275-1.129132 1.8275z" fill="url(#f)"/></g><g transform="matrix(.524485532085 0 0 .524485532085 10.49344851919 12.164881871506)"><path d="m42 18h-35.9999999l-2-2h39.9999999z" fill="#1c7160"/><path d="m6 30h36l2 2h-39.9999999z" fill="#1c7160"/><path d="m4 4h40v12h-39.9999999z" fill="url(#a)"/><path d="m4 32h40v12h-39.9999999z" fill="url(#b)"/><path d="m4 18h31.636187 8.363813v12h-39.9999999z" fill="url(#c)"/></g></svg>

<?xml version="1.0" encoding="UTF-8" standalone="no"?>
<!-- Created with Inkscape (http://www.inkscape.org/) -->

<svg
   xmlns:dc="http://purl.org/dc/elements/1.1/"
   xmlns:cc="http://creativecommons.org/ns#"
   xmlns:rdf="http://www.w3.org/1999/02/22-rdf-syntax-ns#"
   xmlns:svg="http://www.w3.org/2000/svg"
   xmlns="http://www.w3.org/2000/svg"
   xmlns:xlink="http://www.w3.org/1999/xlink"
   xmlns:sodipodi="http://sodipodi.sourceforge.net/DTD/sodipodi-0.dtd"
   xmlns:inkscape="http://www.inkscape.org/namespaces/inkscape"
   width="48px"
   height="48px"
   id="svg2985"
   version="1.1"
   inkscape:version="0.91 r13725"
   sodipodi:docname="kexi.svg">
  <defs
     id="defs2987">
    <linearGradient
       inkscape:collect="always"
       xlink:href="#linearGradient4320"
       id="linearGradient4371-1"
       x1="17.482805"
       y1="4.7156987"
       x2="37.757912"
       y2="39.833214"
       gradientUnits="userSpaceOnUse"
       gradientTransform="matrix(-0.99376025,-0.00423137,0.00423137,0.98887429,47.822674,2.340235)" />
    <linearGradient
       inkscape:collect="always"
       xlink:href="#linearGradient4320"
       id="linearGradient4371-1-7"
       x1="17.482805"
       y1="4.7156987"
       x2="37.757912"
       y2="39.833214"
       gradientUnits="userSpaceOnUse"
       gradientTransform="matrix(-0.99376025,-0.00423137,0.00423137,0.98887429,47.822674,31.340235)" />
    <linearGradient
       inkscape:collect="always"
       xlink:href="#linearGradient4320"
       id="linearGradient4371-1-7-6"
       x1="17.482805"
       y1="4.7156987"
       x2="37.757912"
       y2="39.833214"
       gradientUnits="userSpaceOnUse"
       gradientTransform="matrix(-0.99376025,-0.00423137,0.00423137,0.98887429,47.822674,16.340235)" />
    <linearGradient
       inkscape:collect="always"
       id="linearGradient4419">
      <stop
         style="stop-color:#178b6f;stop-opacity:1"
         offset="0"
         id="stop4421" />
      <stop
         style="stop-color:#3cad9d;stop-opacity:1"
         offset="1"
         id="stop4423" />
    </linearGradient>
    <linearGradient
       inkscape:collect="always"
       id="linearGradient4413">
      <stop
         style="stop-color:#178b6f;stop-opacity:1"
         offset="0"
         id="stop4415" />
      <stop
         style="stop-color:#4dd7c4;stop-opacity:1"
         offset="1"
         id="stop4417" />
    </linearGradient>
    <linearGradient
       inkscape:collect="always"
       xlink:href="#linearGradient4413"
       id="linearGradient4300-2"
       x1="17"
       y1="1036.3622"
       x2="17"
       y2="1012.3622"
       gradientUnits="userSpaceOnUse"
       gradientTransform="matrix(1.0309825,0,0,1,-0.512598,0)" />
    <linearGradient
       inkscape:collect="always"
       xlink:href="#linearGradient4320"
       id="linearGradient4308"
       x1="33.461716"
       y1="1013.622"
       x2="34.116894"
       y2="1037.2084"
       gradientUnits="userSpaceOnUse"
       gradientTransform="matrix(0.68964436,0,0,1,10.82717,0)" />
    <linearGradient
       inkscape:collect="always"
       xlink:href="#linearGradient4419"
       id="linearGradient4286"
       x1="28"
       y1="1037.3622"
       x2="28"
       y2="1011.3622"
       gradientUnits="userSpaceOnUse"
       gradientTransform="translate(-0.199659,0)" />
    <linearGradient
       inkscape:collect="always"
       id="linearGradient4320">
      <stop
         style="stop-color:#f6fbff;stop-opacity:1"
         offset="0"
         id="stop4322" />
      <stop
         style="stop-color:#eaeff2;stop-opacity:1"
         offset="1"
         id="stop4324" />
    </linearGradient>
  </defs>
  <sodipodi:namedview
     id="base"
     pagecolor="#5a5a5a"
     bordercolor="#666666"
     borderopacity="1.0"
     inkscape:pageopacity="0"
     inkscape:pageshadow="2"
     inkscape:zoom="5.6630829"
     inkscape:cx="-0.59433335"
     inkscape:cy="23.088392"
     inkscape:current-layer="layer1"
     showgrid="false"
     inkscape:grid-bbox="true"
     inkscape:document-units="px"
     inkscape:snap-global="true"
     inkscape:window-width="1366"
     inkscape:window-height="642"
     inkscape:window-x="0"
     inkscape:window-y="33"
     inkscape:window-maximized="0"
     inkscape:snap-bbox="true"
     inkscape:bbox-nodes="true"
     inkscape:object-nodes="true"
     inkscape:snap-nodes="true"
     showguides="false"
     showborder="false">
    <inkscape:grid
       type="xygrid"
       id="grid2993" />
  </sodipodi:namedview>
  <metadata
     id="metadata2990">
    <rdf:RDF>
      <cc:Work
         rdf:about="">
        <dc:format>image/svg+xml</dc:format>
        <dc:type
           rdf:resource="http://purl.org/dc/dcmitype/StillImage" />
        <dc:title></dc:title>
      </cc:Work>
    </rdf:RDF>
  </metadata>
  <g
     id="layer1"
     inkscape:label="Layer 1"
     inkscape:groupmode="layer">
    <g
       id="g4163"
       transform="matrix(1.1526351,0,0,1.1526351,-3.6063387,-3.8472464)">
      <g
         transform="translate(0.24974411,-0.18030063)"
         id="layer1-4"
         inkscape:label="Layer 1">
        <g
           id="g4389"
           transform="translate(-39.084616,0)">
          <g
             inkscape:label="Layer 1"
             id="layer1-9"
             transform="matrix(-1,0,0,1,473.37783,-499.49967)">
            <g
               transform="matrix(-1.5263052,0,0,1.5263052,444.81962,-1040.1735)"
               id="g4414">
              <path
                 sodipodi:nodetypes="ccccccc"
                 inkscape:connector-curvature="0"
                 id="path4248"
                 d="m 11.563303,1036.9442 11.636697,0 -3.21e-4,-24.4983 -11.533282,3e-4 c -1.268259,-0.094 -1.782566,0.023 -1.782566,1.1721 l 0,22.0916 c -0.07966,1.261 0.446208,1.2343 1.679472,1.2343 z"
                 style="opacity:1;fill:url(#linearGradient4300-2);fill-opacity:1;fill-rule:evenodd;stroke:none;stroke-width:1px;stroke-linecap:butt;stroke-linejoin:miter;stroke-opacity:1" />
              <path
                 sodipodi:nodetypes="ccccccc"
                 inkscape:connector-curvature="0"
                 id="path4248-6"
                 d="m 33.959911,1036.9362 -7.990815,0 0,-24.498 7.990815,0 c 0.848365,-0.094 0.916631,0.023 0.916631,1.1721 l 0,22.0916 c 0.05328,1.261 -0.09168,1.2343 -0.916631,1.2343 z"
                 style="opacity:1;fill:url(#linearGradient4308);fill-opacity:1;fill-rule:evenodd;stroke:none;stroke-width:1px;stroke-linecap:butt;stroke-linejoin:miter;stroke-opacity:1" />
              <path
                 sodipodi:nodetypes="ccccccc"
                 inkscape:connector-curvature="0"
                 id="path4248-6-0"
                 d="M 31.957586,1038.1035 21.928,1036.932 l -2e-5,-24.4861 9.945926,-0.9324 c 1.230149,-0.094 1.296492,0.2446 1.296492,1.3937 l -0.08368,23.3688 c 0.07726,1.261 0.06707,1.8275 -1.129132,1.8275 z"
                 style="opacity:1;fill:url(#linearGradient4286);fill-opacity:1;fill-rule:evenodd;stroke:none;stroke-width:1px;stroke-linecap:butt;stroke-linejoin:miter;stroke-opacity:1" />
            </g>
          </g>
        </g>
      </g>
      <g
         transform="translate(1.522843,-0.60913721)"
         id="g4344">
        <g
           id="g4298"
           transform="matrix(0.45503172,0,0,0.45503172,10.709812,14.500895)">
          <path
             style="opacity:1;fill:#1c7160;fill-opacity:1;stroke:none;stroke-width:2;stroke-linecap:round;stroke-linejoin:bevel;stroke-miterlimit:4;stroke-dasharray:none;stroke-opacity:1"
             d="m 42,18 -35.9999999,0 -2,-2 L 44,16 Z"
             id="rect4174-4-7-7-6"
             inkscape:connector-curvature="0"
             sodipodi:nodetypes="ccccc" />
          <path
             style="opacity:1;fill:#1c7160;fill-opacity:1;stroke:none;stroke-width:2;stroke-linecap:round;stroke-linejoin:bevel;stroke-miterlimit:4;stroke-dasharray:none;stroke-opacity:1"
             d="m 6,30 36,0 2,2 -39.9999999,0 z"
             id="rect4174-4-7-7"
             inkscape:connector-curvature="0"
             sodipodi:nodetypes="ccccc" />
          <path
             style="opacity:1;fill:url(#linearGradient4371-1);fill-opacity:1;stroke:none;stroke-width:2;stroke-linecap:round;stroke-linejoin:bevel;stroke-miterlimit:4;stroke-dasharray:none;stroke-opacity:1"
             d="M 4,4 44,4 44,16 4.0000001,16 Z"
             id="rect4174-4-7"
             inkscape:connector-curvature="0"
             sodipodi:nodetypes="ccccc" />
          <path
             style="opacity:1;fill:url(#linearGradient4371-1-7);fill-opacity:1;stroke:none;stroke-width:2;stroke-linecap:round;stroke-linejoin:bevel;stroke-miterlimit:4;stroke-dasharray:none;stroke-opacity:1"
             d="m 4,32 40,0 0,12 -39.9999999,0 z"
             id="rect4174-4-7-2"
             inkscape:connector-curvature="0"
             sodipodi:nodetypes="ccccc" />
          <path
             style="opacity:1;fill:url(#linearGradient4371-1-7-6);fill-opacity:1;stroke:none;stroke-width:2;stroke-linecap:round;stroke-linejoin:bevel;stroke-miterlimit:4;stroke-dasharray:none;stroke-opacity:1"
             d="M 4,18 35.636187,18 44,18 44,30 4.0000001,30 Z"
             id="rect4174-4-7-2-8"
             inkscape:connector-curvature="0"
             sodipodi:nodetypes="cccccc" />
        </g>
      </g>
    </g>
  </g>
</svg>
